X: 39243
T: Tae In The Hole, The
R: reel
M: 4/4
K: Dmajor
FE|DFFF GEEE|DFAF BFAF|DFFF GEEE|ABcA d2 AF|
DFFF GEEE|DFAc d2 de|fdec dfed|cAGE EDD2
Addd fded|cAAB cdec|Addd fded|cAGE EDD2|
Addd fded|cAAB cde2|fdec dfed|cAGE EDD2
FDA,D FDDD|FDA,D GEEE|FDA,D FDA,D|GAGE EDD2|
FDA,D FDDF|ED=CD EGGE|DFAd fafe|cAGE EDD2||

